X: 5
T: Saint Anne's
R: reel
M: 4/4
L: 1/8
K: Dmaj
|: de |fedf edcB | ~A2 FA DAFA | ~B2 GB EBGB | ~A2 FA DAFA |
fedf edcB | ~A2 FA DAFA | B2 ed cABc | dedc d2 :|
|: de |~f2 fe fdef | gagf ~g2 gf | edcB ABce | baa^g ~a2 a=g |
~f2 fe fdef | gagf ~g2 gf | edcB ABcd | eddc d2 :|


Tune 103	Setting 20675

